!!!!SEGMENT: pl-kk--kk-i-10--005_anonim--nativitas-tua-dei-genitrix.krn
!!!cenid: 16xx:1192
!!!COM: Anonim
!!!COM-rismID: pe30004985
!!!CDT:
!!!CNT:
!!!OTL: Nativitas tua Dei Genitrix
!!!PDT:
!!!AGN: Sacred
!!!YEC: Copyright 2022 Narodowy Instytut Fryderyka Chopina (https://polishscores.org)
!!!YEM: License CC-BY-4.0 (https://creativecommons.org/licenses/by/4.0)
!!!SMS-siglum: PL-Kk
!!!SMS-shelfmark: Kk.I.10
!!!SMS-shelfwork: 005 W
!!!SMS-variant:
!!!SMS-altvar:
!!!NIFC-rismSourceID: 1001151827
!!!NIFC-rismChildID: 1001151833
!!!NIFC-islandoraID: pl-kk:2434
!!!URL-pdf-islandora: https://repozytorium.nifc.pl/islandora/object/pl-kk%3A2434/datastream/PDF/view
!!!URL-scan: https://polish.musicsources.pl/pl/lokalizacje/galeria/rekopisy/5737 @EN{Scan on Polish Music Sources Website} @PL{Skany w portalu Dziedzictwo Muzyki Polskiej w otwartym dostępie}
!!!IIIF:
!!!ONB-nifc: UWAGA: T1 (skan 0012), T2 (0062), B (0111-0112). Następny utwór: Domine ne in furore tuo
!!!AIN: 1 bass 2 empty
!!!key:
**kern	**text	**kern	**text	**text	**kern	**text	**text
*part3	*	*part2	*	*	*part1	*	*
*staff3	*	*staff2	*	*	*staff1	*	*
*Ibass	*	*Iempty	*	*	*Iempty	*	*
*I"Bassus.	*	*I"2dus	*	*	*I"Primus	*	*
*I'B	*	*I'T 2	*	*	*I'T 1	*	*
*clefF4	*	*clefC4	*	*	*clefC4	*	*
*k[b-]	*	*k[b-]	*	*	*k[b-]	*	*
*g:	*	*g:	*	*	*g:	*	*
*M2/1	*	*M2/1	*	*	*M2/1	*	*
*met(C)	*	*met(C|)	*	*	*met(C|)	*	*
=1-	=1-	=1-	=1-	=1-	=1-	=1-	=1-
1D	Na-	00r	.	.	1rA	.	.
*2\right	*	*	*	*	*	*	*
2.E-X\	-ti-	.	.	.	1G	Na-	Con-
4E-\	-ui-	.	.	.	.	.	.
=2-	=2-	=2-	=2-	=2-	=2-	=2-	=2-
*	*	*	*	*	*2\right	*	*
2D/	-tas	.	.	.	2.B-\	-ti-	-ce-
1G	tu-	.	.	.	.	.	.
.	.	.	.	.	4B-\	-ui-	-pti-
.	.	.	.	.	2A/	-tas	-o
2F\	.	.	.	.	1d\	tu-	.
=3-	=3-	=3-	=3-	=3-	=3-	=3-	=3-
*lig	*	*	*	*	*	*	*
1E-X	.	1rA	.	.	.	.	.
.	.	.	.	.	2c\	.	.
1D	.	2D/	Na-	Con-	2B-\	.	.
*	*	*2\right	*	*	*	*	*
.	.	2.d\	-ti-	-ce-	2A/	.	.
*Xlig	*	*	*	*	*	*	*
=4-	=4-	=4-	=4-	=4-	=4-	=4-	=4-
1G	-a	.	.	.	1G	-a	.
.	.	4d\	-ui-	-pti-	.	.	.
.	.	1c	-tas	-o	.	.	.
2GG/	Na-	.	.	.	2rF	.	.
2.G\	-ti-	4B-\	tu-	.	2G/	Na-	.
.	.	4c\	.	.	.	.	.
=5-	=5-	=5-	=5-	=5-	=5-	=5-	=5-
.	.	4d\	.	.	4.B-\	-ti-	.
4G\	-ui-	4e\	.	.	.	.	.
.	.	.	.	.	8B-\	-ui-	.
*custos:B-	*	*	*	*	*custos:d	*	*
2F\	-tas	2.f\	.	.	2A/	-tas	.
!LO:LB:g=original	!	!	!	!	!LO:LB:g=original	!	!
1B-	tu-	.	.	.	2.d\	tu-	.
.	.	4e\	.	.	.	.	.
.	.	1d\	.	.	.	.	.
.	.	.	.	.	4e\	.	.
=6-	=6-	=6-	=6-	=6-	=6-	=6-	=6-
1A	-a	.	.	.	2f\	.	.
!	!	!LO:TX:a:t=P:problem=♯ above	!	!	!	!	!
.	.	2c#X\	.	.	2e\	.	.
1.D	De-	1d	-a	.	1d	.	.
=7-	=7-	=7-	=7-	=7-	=7-	=7-	=7-
.	.	1re	.	.	1A	-a	.
2C#X/	-i	.	.	.	.	.	.
*	*	*custos:B-	*	*	*	*	*
2.D/	Ge-	1A	Na-	.	0r	.	.
4Cny/	.	.	.	.	.	.	.
!	!	!LO:LB:g=original	!	!	!	!	!
=8-	=8-	=8-	=8-	=8-	=8-	=8-	=8-
4BB-/	.	2.B-\	-ti-	.	.	.	.
4GG/	.	.	.	.	.	.	.
2.G\	.	.	.	.	.	.	.
.	.	4B-\	-ui-	.	.	.	.
.	.	2A/	-tas	.	2r	.	.
4G\	ni-	.	.	.	.	.	.
*	*	*	*	*	*	*ij	*
2F#X\	-trix	2.d\	tu-	.	2A/	Na-	.
=9-	=9-	=9-	=9-	=9-	=9-	=9-	=9-
1G	Vir-	.	.	.	2.B-X\	-ti-	.
.	.	4cny\	.	.	.	.	.
.	.	4B-\	.	.	.	.	.
.	.	4c\	.	.	4B-\	-ui-	.
1D	-go	2d\	.	.	2A/	-tas	.
.	.	2A/	-a	.	1d\	tu-	.
=10-	=10-	=10-	=10-	=10-	=10-	=10-	=10-
*	*	*	*ij	*	*	*	*
0rE	.	2A/	Na-	.	.	.	.
.	.	2.A/	-ti-	.	2c\	.	.
*	*	*	*	*	*lig	*	*
.	.	.	.	.	1B-	.	.
.	.	4A/	-ui-	.	.	.	.
.	.	4G/	-tas	.	.	.	.
.	.	2G/	tu-	.	.	.	.
=11-	=11-	=11-	=11-	=11-	=11-	=11-	=11-
2.D/	De-	.	.	.	1A	.	.
.	.	8F#X/L	.	.	.	.	.
.	.	8E/J	.	.	.	.	.
.	.	2F#/	.	.	.	.	.
4D/	-i	.	.	.	.	.	.
*	*	*	*	*	*Xlig	*	*
2.E-X\	ge-	1G	-a	.	2G,</	-a	.
*	*	*	*Xij	*	*	*Xij	*
.	.	.	.	.	2.G/	De-	.
4E-\	-ni-	.	.	.	.	.	.
=12-	=12-	=12-	=12-	=12-	=12-	=12-	=12-
*custos:D	*	*	*	*	*	*	*
2D/	-trix	1rA	.	.	.	.	.
.	.	.	.	.	4F/	-i	.
!LO:LB:g=original	!	!	!	!	!	!	!
1D	De-	.	.	.	1f	Ge-	.
.	.	2.A/	De-	.	.	.	.
2C/	-i	.	.	.	2e\	-ni-	.
*	*	*custos:B-	*	*	*	*	*
.	.	4A/	-i	.	.	.	.
!	!	!LO:LB:g=original	!	!	!	!	!
=13-	=13-	=13-	=13-	=13-	=13-	=13-	=13-
2BB-/	Ge-	2.B-\	ge-	.	2d\	-trix	.
!	!	!	!	!	!LO:LB:g=original	!	!
4AA/	.	.	.	.	1d	De-	.
4GG/	.	4B-\	-ni-	.	.	.	.
2.D/	.	2A/	-trix	.	.	.	.
.	.	1d\	De-	.	2A/	-i	.
4D/	-ni-	.	.	.	.	.	.
=14-	=14-	=14-	=14-	=14-	=14-	=14-	=14-
1AA	-trix	.	.	.	[1A	ge-	.
.	.	2c\	-i	.	.	.	.
2.BB-/	vir-	2B-\	ge-	.	4A/]	.	.
.	.	.	.	.	4A/	-ni-	.
.	.	4B-\	-ni-	.	4G/	-trix	.
4C/	.	4B-\	-trix	.	2G/	vir-	.
=15-	=15-	=15-	=15-	=15-	=15-	=15-	=15-
1D	.	1A	vir-	.	.	.	.
!	!	!	!	!	!LO:TX:b:t=P:problem=# below	!	!
.	.	.	.	.	8F#X/L	.	.
.	.	.	.	.	8E/J	.	.
.	.	.	.	.	2F#/	.	.
!	!	!LO:N:acc=#	!	!	!	!	!
1GG	-go	1Bn	-go	.	1G	-go	.
=16-	=16-	=16-	=16-	=16-	=16-	=16-	=16-
*M3/1	*	*M3/1	*	*	*M3/1	*	*
1.G	Gau-	1.B-X	Gau-	.	1.d	Gau-	.
2G\	-di-	2B-\	-di-	.	2d\	-di-	.
1D	-um	1A	-um	.	1d	-um	.
=17-	=17-	=17-	=17-	=17-	=17-	=17-	=17-
1E-X	An-	1G	an-	.	1B-	an-	.
1C	-nun-	1G	-nun-	.	1c	-nun-	.
*custos:F	*	*	*	*	*	*	*
1BB-	-ti-	1B-	-ci-	.	1d	-ti-	.
!LO:PB:g=original	!	!	!	!	!	!	!
=18-	=18-	=18-	=18-	=18-	=18-	=18-	=18-
0.Fny	-a-	1B-	-a-	.	1d	-a-	.
.	.	2A/	.	.	2c\	.	.
.	.	2G/	.	.	2B-\	.	.
*	*	*	*	*	*custos:d	*	*
.	.	1A	.	.	1c	.	.
!	!	!LO:LB:g=original	!	!	!LO:LB:g=original	!	!
=19-	=19-	=19-	=19-	=19-	=19-	=19-	=19-
0.BB-	-uit	0.B-	-uit	.	0.d	-uit	.
=20-	=20-	=20-	=20-	=20-	=20-	=20-	=20-
1.B-	U-	00.r	.	.	1.d	U-	.
2A\	-ni-	.	.	.	2c\	-ni-	.
1G	-uer-	.	.	.	1B-	-ver-	.
=21-	=21-	=21-	=21-	=21-	=21-	=21-	=21-
1F	-so	.	.	.	1A	-so	.
*	*	*	*	*	*col	*	*
0C	mun-	.	.	.	0G	mun-	.
*	*	*	*	*	*Xcol	*	*
=22-	=22-	=22-	=22-	=22-	=22-	=22-	=22-
0.FF	-do	0.r	.	.	0.A	-do	.
=23-	=23-	=23-	=23-	=23-	=23-	=23-	=23-
1.F	Gau-	1.A	Gau-	.	1.c	Gau-	.
2F\	-di-	2A/	-di-	.	2c\	-di-	.
1C	-um	1G	-um	.	1c	-um	.
=24-	=24-	=24-	=24-	=24-	=24-	=24-	=24-
1D	an-	1F#X	an-	.	1A	an-	.
1BB-	-nun-	1G	-nun-	.	1B-	-nun-	.
1FF#X	-ti-	1A	-ci-	.	1A	-ci-	.
=25-	=25-	=25-	=25-	=25-	=25-	=25-	=25-
0.GG	-a-	1A	-a-	.	0.B-	-a-	.
.	.	2G/	.	.	.	.	.
.	.	2F#X/	.	.	.	.	.
.	.	1G	.	.	.	.	.
=26-	=26-	=26-	=26-	=26-	=26-	=26-	=26-
*custos:BB-	*	*	*	*	*	*	*
0.D	-uit	0.F#X	-uit	.	0.A	-uit	.
!LO:LB:g=original	!	!	!	!	!	!	!
=27-	=27-	=27-	=27-	=27-	=27-	=27-	=27-
*	*ij	*	*ij	*	*	*	*
1.BB-	Gau-	1.B-	Gau-	.	1.d	Gau-	.
2BB-/	-di-	2B-\	-di-	.	2d\	-di-	.
1F	-um	1A	-um	.	1c	-um	.
!	!	!	!	!	!LO:LB:g=original	!	!
=28-	=28-	=28-	=28-	=28-	=28-	=28-	=28-
!	!	!	!	!	!LO:N:acc=#	!	!
1G	an-	1G	an-	.	1Bn	an-	.
1E-X	-nun-	1G	-nun-	.	1c	-nun-	.
1C	-ti-	1c	-ci-	.	1e-X	-ci-	.
!	!	!LO:LB:g=original	!	!	!	!	!
=29-	=29-	=29-	=29-	=29-	=29-	=29-	=29-
0.G	-a-	1c	-a-	.	1e-y	-a-	.
!	!	!LO:TX:a:t=P:problem=♯ above	!	!	!	!	!
!	!	!LO:N:acc=#	!	!	!	!	!
.	.	2Bn\	.	.	2d\	.	.
.	.	2A\	.	.	2c\	.	.
.	.	1B	.	.	1d	.	.
=30-	=30-	=30-	=30-	=30-	=30-	=30-	=30-
0.C	-uit	0.c	-uit	.	0.c	-uit	.
*	*Xij	*	*Xij	*	*	*	*
=31-	=31-	=31-	=31-	=31-	=31-	=31-	=31-
1.C	U-	1.G	U-	.	1.c	u-	.
2BB-/	-ni-	2G/	-ni-	.	2d\	-ni-	.
1AA	-uer-	1A	-uer-	.	1c	-ver-	.
=32-	=32-	=32-	=32-	=32-	=32-	=32-	=32-
1GG	-so	1B-	-so	.	1d	-so	.
*	*	*	*	*	*col	*	*
0D	mun-	0A	mun-	.	0d	mun-	.
*	*	*	*	*	*Xcol	*	*
=33-	=33-	=33-	=33-	=33-	=33-	=33-	=33-
!	!	!LO:N:acc=#	!	!	!	!	!
0.GG	-do	0.Bn	-do	.	0.d	-do	.
=34-	=34-	=34-	=34-	=34-	=34-	=34-	=34-
*M2/1	*	*M2/1	*	*	*M2/1	*	*
*met(C|)	*	*met(C)	*	*	*met(C)	*	*
2r	.	4.G/	Ex	.	2rF	.	.
.	.	8G/	te	.	.	.	.
4.C/	ex	2c\	e-	.	4.E/	ex	.
*custos:F	*	*	*	*	*	*	*
8C/	te	.	.	.	8E/	te	.
!LO:LB:g=original	!	!	!	!	!LO:LB:g=original	!	!
2F\	e-	2A/	-nim	.	2A/	e-	.
2D/	-nim	4d\	or-	.	2Fny/	-nim	.
.	.	8d\	-tus	.	.	.	.
*	*	*custos:B-	*	*	*	*	*
.	.	8c\	eſt	.	.	.	.
!	!	!LO:PB:g=original	!	!	!	!	!
=35-	=35-	=35-	=35-	=35-	=35-	=35-	=35-
4G\	or-	4B-y\	or-	.	4B-y\	or-	.
8G\	-tus	8B-\	-tus	.	8c\	-tus	.
8F\	eſt	8A/	eſt	.	8d\	eſt	.
1E-X	sol	1G	sol	.	4.e-X\	sol	.
.	.	.	.	.	8d\	iu-	.
.	.	.	.	.	8.c\	-ſti-	.
.	.	.	.	.	16c\	-ti-	.
.	.	.	.	.	4B-\	-ae	.
2E-\	iu-	2rF	.	.	4e-X\	or-	.
.	.	.	.	.	8d\	-tus	.
.	.	.	.	.	8d\	eſt	.
=36-	=36-	=36-	=36-	=36-	=36-	=36-	=36-
1.F	-ſti-	4f\	or-	.	2c\	sol	.
.	.	8f\	-tus	.	.	.	.
.	.	8e-X\	eſt	.	.	.	.
.	.	4d\	sol	.	2B-\	iu-	.
.	.	8c\L	.	.	.	.	.
.	.	8B-\J	.	.	.	.	.
.	.	8A/	.	.	2.c\	-ſti-	.
.	.	8Fny/	iu-	.	.	.	.
.	.	2B-\	-ſti-	.	.	.	.
2F\	-ti-	.	.	.	.	.	.
.	.	4A/	-ti-	.	4c\	-ti-	.
=37-	=37-	=37-	=37-	=37-	=37-	=37-	=37-
4BB-,</	-ae	2B-\	-ae	.	4d,<\	-ae	.
2B-\	CHri-	.	.	.	2d\	CHri-	.
.	.	2r	.	.	.	.	.
4F\	-ſtus	.	.	.	4f\	-ſtus	.
4.G\	De-	1r	.	.	8eny\	De-	.
.	.	.	.	.	8d\	-us	.
!	!	!	!	!	!LO:TX:t=P:problem=fragment nieczytelny	!	!
.	.	.	.	.	2d\	no-	.
8G\	-us	.	.	.	.	.	.
2A\	no-	.	.	.	.	.	.
!	!	!	!	!	!LO:PB:g=original	!	!
!	!	!	!	!	!LO:TX:a:t=P:problem=♯ above	!	!
.	.	.	.	.	4c#X\yy	.	.
=38-	=38-	=38-	=38-	=38-	=38-	=38-	=38-
4D,</	-ſter	4rc	.	.	4d,<\	-ſter	.
2D/	CHri-	2d\	CHri-	.	2f\	CHri-	.
4AA/	-ſtus	2c\	-ſtus	.	4e\	-ſtus	.
8BB-/L	De-	.	.	.	2d\	De-	.
8C/	.	.	.	.	.	.	.
8D/	.	2B-\	De-	.	.	.	.
*custos:F	*	*	*	*	*	*	*
8Eny/J	.	.	.	.	.	.	.
!LO:LB:g=original	!	!	!	!	!	!	!
8F\L	.	.	.	.	2cny\	-us	.
8G\	.	.	.	.	.	.	.
8A\	.	2A/	-us	.	.	.	.
8F\J	.	.	.	.	.	.	.
=39-	=39-	=39-	=39-	=39-	=39-	=39-	=39-
!LO:TX:t=P:problem=mixed beam	!	!	!	!	!	!	!
8G\L	.	.	.	.	2B-\	no-	.
8GG/	.	.	.	.	.	.	.
8BB-/	.	8G/	De-	.	.	.	.
*	*	*custos:A	*	*	*	*	*
8GG/J	.	8G/	-us	.	.	.	.
!	!	!LO:LB:g=original	!	!	!	!	!
8D\L	.	2A/	no-	.	4d\	-ſter	.
8E\J	.	.	.	.	.	.	.
4F\	.	.	.	.	2c\	De-	.
4C/	-us	4G/	-ſter	.	.	.	.
2C/	CHri-	2G/	CHri-	.	8B-\L	.	.
.	.	.	.	.	8A\J	.	.
.	.	.	.	.	8G/L	.	.
.	.	.	.	.	8A/	.	.
4BB-/	-ſtus	4G/	-ſtus	.	8B-/	.	.
.	.	.	.	.	8G/J	.	.
=40-	=40-	=40-	=40-	=40-	=40-	=40-	=40-
4AA/	De-	4A/	De-	.	4c\	.	.
4GG/	-us	4B-\	-us	.	4d\	-us	.
2D/	no-	2A/	no-	.	2d\	no-	.
1GG,<	-ſter	4B-X,<\	-ſter	.	1d	-ſter	.
.	.	4G/	qui	.	.	.	.
.	.	2B-\	sol-	.	.	.	.
=41-	=41-	=41-	=41-	=41-	=41-	=41-	=41-
2D/	qui	4A/	-uens	.	0rA	.	.
.	.	4.F/	ma-	.	.	.	.
2F\	sol-	.	.	.	.	.	.
.	.	8G/	-le-	.	.	.	.
.	.	8A/	-di-	.	.	.	.
.	.	8B-\	-cti-	.	.	.	.
4E\	-uens	4.c\	-o-	.	.	.	.
4.C/	ma-	.	.	.	.	.	.
.	.	16B-\LL	.	.	.	.	.
.	.	16A\JJ	.	.	.	.	.
.	.	8G/L	.	.	.	.	.
8D/	-le-	8F/	.	.	.	.	.
8E\	-di-	8G/	.	.	.	.	.
8F\	-cti-	8A/J	.	.	.	.	.
=42-	=42-	=42-	=42-	=42-	=42-	=42-	=42-
2G\	-o-	8B-\L	.	.	1rA	.	.
.	.	8A\	.	.	.	.	.
.	.	8B-\	.	.	.	.	.
*	*	*custos:d	*	*	*	*	*
.	.	8c\J	.	.	.	.	.
*custos:AA	*	*	*	*	*	*	*
!	!	!LO:LB:g=original	!	!	!	!	!
2D/	-nem	2d\	.	.	.	.	.
!LO:LB:g=original	!	!	!	!	!	!	!
*	*ij	*	*	*	*	*	*
2AA/	qui	2c\	-nem	.	2r	.	.
2C/	sol-	2rc	.	.	4r	.	.
.	.	.	.	.	4G/	qui	.
=43-	=43-	=43-	=43-	=43-	=43-	=43-	=43-
4GG/	-uens	1r	.	.	2B-\	sol-	.
8.BB-/	ma-	.	.	.	.	.	.
16C/	-le-	.	.	.	.	.	.
8.D/	-di-	.	.	.	4A/	-uens	.
16E\	-cti-	.	.	.	.	.	.
2F\	-o-	.	.	.	8.F/	ma-	.
.	.	.	.	.	16G/	-le-	.
!	!	!	!	!	!LO:LB:g=original	!	!
.	.	2r	.	.	8.A\	-di-	.
.	.	.	.	.	16B-\	-cti-	.
4E\	.	.	.	.	2c\	-o-	.
2D/	.	4r	.	.	.	.	.
!	!	!	!	!	!LO:TX:a:t=P:problem=♯ above	!	!
!	!	!	!	!	!LO:N:acc=#	!	!
.	.	4F/	de-	.	4Bn\	.	.
=44-	=44-	=44-	=44-	=44-	=44-	=44-	=44-
2C/	.	4G/	-dit	.	2c\	.	.
.	.	8G/	be-	.	.	.	.
.	.	8A/	-ne-	.	.	.	.
2BB-/	-nem	8.B-\	-di-	.	2F/	-nem	.
*	*Xij	*	*	*	*	*	*
.	.	16F/	-cti-	.	.	.	.
.	.	2B-\	-o-	.	.	.	.
1rE	.	.	.	.	0rA	.	.
.	.	8A/	-nem	.	.	.	.
.	.	8A/	qui	.	.	.	.
.	.	2B-\	sol-	.	.	.	.
=45-	=45-	=45-	=45-	=45-	=45-	=45-	=45-
2rC	.	4A/	-uens	.	.	.	.
.	.	8.F/	Ma-	.	.	.	.
.	.	16G/	-le-	.	.	.	.
4rAA	.	8.A/	-di-	.	.	.	.
.	.	16B-\	-cti-	.	.	.	.
4C/	qui	4.c\	-o-	.	.	.	.
2E-X\	sol-	.	.	.	1rA	.	.
.	.	16B-\LL	.	.	.	.	.
.	.	16A\J	.	.	.	.	.
.	.	8G\	.	.	.	.	.
*	*	*custos:B-	*	*	*	*	*
.	.	8A\J	.	.	.	.	.
!	!	!LO:LB:g=original	!	!	!	!	!
4D/	-uens	4B-\	.	.	.	.	.
4.D/	ma-	8A/L	.	.	.	.	.
.	.	8G/J	.	.	.	.	.
=46-	=46-	=46-	=46-	=46-	=46-	=46-	=46-
.	.	8A/L	.	.	4r	.	.
8C/	-le-	8B-/J	.	.	.	.	.
8AA/	-di-	4.c\	.	.	4c\	qui	.
8BB-/	-cti-	.	.	.	.	.	.
2C/	-o-	.	.	.	2e-X\	sol-	.
.	.	16B-\LL	.	.	.	.	.
.	.	16A\JJ	.	.	.	.	.
.	.	8G/L	.	.	.	.	.
.	.	8A/J	.	.	.	.	.
*custos:G	*	*	*	*	*	*	*
4GG/	-nem	4B-\	.	.	4d\	-vens	.
!LO:LB:g=original	!	!	!	!	!	!	!
4.G\	ma-	4B-\	-nem	.	4.B-y\	ma-	.
.	.	2rc	.	.	.	.	.
8A\	-le-	.	.	.	8c\	-le-	.
8B-\	-di-	.	.	.	8.d\	-di-	.
8G\	-cti-	.	.	.	.	.	.
.	.	.	.	.	16e-\	-cti-	.
=47-	=47-	=47-	=47-	=47-	=47-	=47-	=47-
4A\	-o-	1re	.	.	8f\L	-o-	.
.	.	.	.	.	8c\J	.	.
8G\L	.	.	.	.	2d\	.	.
8F\	.	.	.	.	.	.	.
8Eny\	.	.	.	.	.	.	.
8D\J	.	.	.	.	.	.	.
4E\	.	.	.	.	4c#X\	.	.
2D/	-nem	8d\L	ma-	.	2d\	-nem	.
.	.	8c\	.	.	.	.	.
.	.	8A\J	.	.	.	.	.
!	!	!LO:TX:a:t=P:problem=♯ above	!	!	!	!	!
!	!	!LO:N:acc=#	!	!	!	!	!
.	.	8Bn\	-le-	.	.	.	.
2AA/	qui	4.c#X\	-di-	.	2rc	.	.
.	.	8c#\	-cti-	.	.	.	.
=48-	=48-	=48-	=48-	=48-	=48-	=48-	=48-
2BB-/	sol-	2.d\	-o-	.	2r	.	.
2AA/	-uens	.	.	.	4r	.	.
*	*	*	*	*	*custos:F	*	*
!	!	!LO:TX:a:t=P:problem=♯ above	!	!	!	!	!
.	.	4c#X\	.	.	4A/	de-	.
!	!	!	!	!	!LO:LB:g=original	!	!
4.D/	ma-	2d\	-nem	.	4F/	-dit	.
.	.	.	.	.	8.F/	be-	.
8E\	-le-	.	.	.	.	.	.
.	.	.	.	.	16G/	-ne-	.
8F\	-di-	2rc	.	.	8.A\	-di-	.
8G\	-cti-	.	.	.	.	.	.
.	.	.	.	.	16B-\	-cti-	.
!LO:TX:t=P:problem=cross-measure beam	!	!	!	!	!	!	!
8A\L	-o-	.	.	.	2cny\	-o-	.
8G\	.	.	.	.	.	.	.
=49-	=49-	=49-	=49-	=49-	=49-	=49-	=49-
!LO:TX:a:t=P:problem=♯ above	!	!	!	!	!	!	!
8F#X\	.	4rc	.	.	.	.	.
8D\J	.	.	.	.	.	.	.
2G\	.	4d\	de-	.	4B-\	.	.
.	.	4cny\	-dit	.	2A/	.	.
4F#\	.	8.c\	be-	.	.	.	.
.	.	16A/	-ne-	.	.	.	.
!	!	!LO:LB:g=original	!	!	!	!	!
8G\L	.	8B-y\L	-di-	.	2G/	-nem	.
8A\	.	8c\	.	.	.	.	.
8B-\	.	8d\J	.	.	.	.	.
16c\L	.	16e-X\LL	-cti-	.	.	.	.
16B-\JJ	.	16d\JJ	.	.	.	.	.
!LO:LB:g=original	!	!	!	!	!	!	!
2A\	.	2c\	-o-	.	4r	.	.
.	.	.	.	.	4A/	de-	.
=50-	=50-	=50-	=50-	=50-	=50-	=50-	=50-
2G\	-nem	2d\	-nem	.	4B-\	-dit	.
.	.	.	.	.	8.B-\	be-	.
.	.	.	.	.	16c\	-ne-	.
2D/	de-	2rc	.	.	8.d\	-di-	.
.	.	.	.	.	16A/	-cti-	.
.	.	.	.	.	2d\	-o-	.
4E\	-dit	1rA	.	.	.	.	.
8.E\	be-	.	.	.	4c\	.	.
16Fny\	-ne-	.	.	.	.	.	.
8.G\	-di-	.	.	.	4.B-\	.	.
16D\	-cti-	.	.	.	.	.	.
2G\	-o-	.	.	.	.	.	.
.	.	.	.	.	16A/LL	.	.
.	.	.	.	.	16G/JJ	.	.
=51-	=51-	=51-	=51-	=51-	=51-	=51-	=51-
.	.	2D/	de-	.	8A/	.	.
.	.	.	.	.	8D/	-nem	.
*	*	*	*	*	*custos:c	*	*
4F#y\	.	.	.	.	4d\	de-	.
!	!	!	!	!	!LO:LB:g=original	!	!
2G\	-nem	4E/	-dit	.	4c\	-dit	.
.	.	8.E/	be-	.	8.c\	be-	.
.	.	16F/	-ne-	.	16c\	-ne-	.
2GG/	qui	8.G/	-di-	.	8B-\L	.	.
.	.	.	.	.	8c\J	.	.
.	.	16A/	-cti-	.	.	.	.
.	.	4.B-\	-o-	.	2d\	di-	.
4BB-/	sol-	.	.	.	.	.	.
.	.	16A/LL	.	.	.	.	.
.	.	16G/J	.	.	.	.	.
4BB-/	-uens	8F/	.	.	4d\	-cti-	.
.	.	8G/J	.	.	.	.	.
=52-	=52-	=52-	=52-	=52-	=52-	=52-	=52-
8AA/	ma-	2A/	.	.	1c	-o-	.
8GG/	-le-	.	.	.	.	.	.
8AA/	-di-	.	.	.	.	.	.
8BB-/	-cti-	.	.	.	.	.	.
2C/	-o-	2G/	-nem	.	.	.	.
2GG/	-nem	4r	.	.	2B-\	-nem	.
*	*	*	*ij	*	*	*	*
.	.	4B-\	de-	.	.	.	.
*custos:C	*	*	*	*	*	*	*
2D/	de-	4A\	-dit	.	2r	.	.
.	.	8A\	be-	.	.	.	.
*	*	*custos:c	*	*	*	*	*
.	.	8B-\	-ne-	.	.	.	.
!LO:LB:g=original	!	!LO:LB:g=original	!	!	!	!	!
=53-	=53-	=53-	=53-	=53-	=53-	=53-	=53-
4C/	-dit	8.c\	-di-	.	2rc	.	.
.	.	16c\	-cti-	.	.	.	.
8.C/	be-	4G/	-o-	.	.	.	.
16C/	-ne-	.	.	.	.	.	.
*	*	*	*	*	*	*ij	*
4.BB-/	-di-	4B-\	-nem	.	2d\	de-	.
.	.	4G/	de-	.	.	.	.
8BB-/	-cti-	.	.	.	.	.	.
2AA/	-o-	2A/	-dit	.	4c\	-dit	.
.	.	.	.	.	8c\	be-	.
.	.	.	.	.	8A\	-ne-	.
4GG/	-nem	4.B-\	be-	.	8B-\L	-di-	.
.	.	.	.	.	8c\J	.	.
8.BB-/	be-	.	.	.	2d\	.	.
.	.	8B-\	-ne-	.	.	.	.
16C/	-ne-	.	.	.	.	.	.
=54-	=54-	=54-	=54-	=54-	=54-	=54-	=54-
4D/	-di-	4A/	-di-	.	.	.	.
4GG/	-cti-	4B-\	-cti-	.	4d\	-cti-	.
!	!	!	!	!	!LO:N:vis=1	!	!
2D/	-o-	2A/	-o-	.	2d\	-o-	.
!	!	!LO:N:acc=#	!	!	!	!	!
1GG	-nem	1Bn	-nem	.	1d	nem	.
*	*	*	*Xij	*	*	*Xij	*
=55-	=55-	=55-	=55-	=55-	=55-	=55-	=55-
*M3/1	*	*M3/1	*	*	*M3/1	*	*
1.G	Et	1.B-y	Et	.	1.d	Et	.
2G\	con-	2B-\	con-	.	2d\	con-	.
1E-X	-fun-	1B-	-fun-	.	1e-X	-fun-	.
!	!	!	!	!	!LO:LB:g=original	!	!
=56-	=56-	=56-	=56-	=56-	=56-	=56-	=56-
*	*	*	*	*	*col	*	*
1D	-dens	1B-	-dens	.	1B-	-dens	.
*	*	*lig	*	*	*	*	*
0Fny	mor-	1B-	mor-	.	0c	mor-	.
.	.	1A	.	.	.	.	.
*	*	*Xlig	*	*	*Xcol	*	*
=57-	=57-	=57-	=57-	=57-	=57-	=57-	=57-
*custos:B-	*	*custos:B-	*	*	*	*	*
0.BB-	-tem	0.B-	-tem	.	0.d	-tem	.
!LO:PB:g=original	!	!LO:LB:g=original	!	!	!	!	!
=58-	=58-	=58-	=58-	=58-	=58-	=58-	=58-
*	*	*	*ij	*	*	*ij	*
1.B-	et	1.B-	Et	.	1.d	Et	.
2B-\	con-	2B-\	con-	.	2d\	con-	.
1G	-fun-	1d	-fun-	.	1d	-fun-	.
=59-	=59-	=59-	=59-	=59-	=59-	=59-	=59-
*	*	*	*	*	*col	*	*
1F	-dens	1d	-dens	.	1f	-dens	.
*lig	*	*lig	*	*	*	*	*
1A	mor-	1d	mor-	.	0eny	mor-	.
!	!	!LO:TX:b:t=P:problem=# below	!	!	!	!	!
1AA	.	1c#X	.	.	.	.	.
*Xlig	*	*Xlig	*	*	*Xcol	*	*
=60-	=60-	=60-	=60-	=60-	=60-	=60-	=60-
0.D	-tem	0.d	-tem	.	0.d	-tem	.
*	*	*	*Xij	*	*	*Xij	*
=61-	=61-	=61-	=61-	=61-	=61-	=61-	=61-
*	*ij	*	*	*	*	*	*
1.D	et	1.A	Et	.	1.d	et	.
2D/	con-	2A/	con-	.	2d\	con-	.
1BB-	-fun-	1B-	-fun-	.	1d	-fun-	.
=62-	=62-	=62-	=62-	=62-	=62-	=62-	=62-
1AA	-dens	1cny	-dens	.	1c	-dens	.
0C	mor-	0G	mor-	.	0c	mor-	.
=63-	=63-	=63-	=63-	=63-	=63-	=63-	=63-
*M2/1	*	*M2/1	*	*	*M2/1	*	*
*met(C)	*	*met(C)	*	*	*met(C)	*	*
4FFny,</	-tem	2A/	-tem	.	4c,<\	-tem	.
*	*Xij	*	*	*	*	*	*
4F\	do-	.	.	.	4c\	do-	.
4B-\	-na-	4r	.	.	4d\	-na-	.
4A\	-uit	4F/	do-	.	4c\	-uit	.
4B-\	no-	4B-\	-na-	.	4d\	no-	.
8F\	-bis	4A/	-uit	.	8c\	-bis	.
8F\	do-	.	.	.	8c\	do-	.
!LO:LB:g=original	!	!	!	!	!LO:LB:g=original	!	!
4D/	-na-	4B-\	no-	.	4d\	-na-	.
4AA/	-uit	4c\	-bis	.	4c\	-uit	.
=64-	=64-	=64-	=64-	=64-	=64-	=64-	=64-
4BB-/	no-	4d\	vi-	.	4B-\	no-	.
8FF,</	-bis	4c\	-tam	.	8c,<\	-bis	.
*	*ij	*	*	*	*	*ij	*
8F\	do-	.	.	.	8c\	do-	.
4B-\	-na-	4r	.	.	4B-\	-na-	.
*	*	*	*ij	*	*	*	*
*	*	*custos:B-	*	*	*	*	*
4A\	-uit	4F/	do-	.	4c\	-uit	.
!	!	!LO:LB:g=original	!	!	!	!	!
4G\	no-	4B-\	-na-	.	4B-\	no-	.
8F#X,<\	-bis	4A/	-uit	.	4d\	-bis	.
*	*	*	*	*	*	*Xij	*
8D\	do-	.	.	.	.	.	.
4BB-/	-na-	8.G/	no-	.	4rc	.	.
.	.	16G/	-bis	.	.	.	.
4FF#X/	-uit	4A/	vi-	.	4d\	do-	.
=65-	=65-	=65-	=65-	=65-	=65-	=65-	=65-
4GG/	no-	4G/	-tam	.	4B-\	-na-	.
*	*	*	*Xij	*	*	*	*
4D,<\	-bis	4r	.	.	4F#X/	-uit	.
*	*Xij	*	*	*	*	*	*
4G\	vi-	4rF	.	.	4G/	no-	.
4F#X\	-tam	4D/	do-	.	4A,</	-bis	.
4B-\	sem-	4G/	-na-	.	4B-\	vi-	.
4A\	-pi-	4F#X/	-uit	.	4d\	-tam	.
(4G\	-ter-	4B-\	no-	.	4.d\	sem-	.
4F#X\)	.	4A/	-bis	.	.	.	.
.	.	.	.	.	8d\	-pi-	.
=66-	=66-	=66-	=66-	=66-	=66-	=66-	=66-
4.G\	-nam	2G/	vi-	.	2d\	-ter-	.
8G\	do-	.	.	.	.	.	.
4C/	-na-	2G/	-tam	.	4c\	.	.
*custos:C	*	*	*	*	*	*	*
4GG/	-uit	.	.	.	4d\	-nam	.
!LO:LB:g=original	!	!	!	!	!	!	!
4C/	no-	2.G/	sem-	.	4e-X\	vi-	.
*	*	*	*	*	*custos:c	*	*
!	!	!	!	!	!LO:TX:a:t=P:problem=♯ above	!	!
!	!	!	!	!	!LO:N:acc=#	!	!
8G,<\	-bis	.	.	.	4Bn\	-tam	.
*	*ij	*	*	*	*	*	*
8G\	do-	.	.	.	.	.	.
!	!	!	!	!	!LO:LB:g=original	!	!
4E-X\	-na-	.	.	.	4c\	sem-	.
!LO:N:acc=#	!	!	!	!	!	!	!
4BBn/	-uit	4G/	-pi-	.	4d\	-pi-	.
=67-	=67-	=67-	=67-	=67-	=67-	=67-	=67-
4C/	no-	0.G	-ter-	.	4e-X\	-ter-	.
!	!	!	!	!	!LO:TX:a:t=P:problem=♯ above	!	!
!	!	!	!	!	!LO:N:acc=#	!	!
4GG/	-bis	.	.	.	4Bn\	.	.
*	*Xij	*	*	*	*	*	*
4C/	vi-	.	.	.	4c\	.	.
4G\	-tam	.	.	.	4d\	.	.
2C/	sem-	.	.	.	2e-X\	.	.
!LO:N:acc=#	!	!	!	!	!	!	!
2BBn/	-pi-	.	.	.	2.d\	.	.
=68-	=68-	=68-	=68-	=68-	=68-	=68-	=68-
1C	-ter-	.	.	.	.	.	.
.	.	.	.	.	8c\L	.	.
.	.	.	.	.	8Bny\J	.	.
.	.	.	.	.	2c\	.	.
!LO:TX:b:i:t=S.B.P	!	!	!	!	!LO:N:acc=#	!	!
1GGl;	-nam	1Gl;<	-nam	.	1Bnl;<	-nam	.
==	==	==	==	==	==	==	==
*-	*-	*-	*-	*-	*-	*-	*-
!!!system-decoration: [(s1,s2,s3)]
!!!RDF**kern: > = above
!!!RDF**kern: < = below
!!!RDF**kern: l = terminal long
!!!ENC: Andrzej Kubiczek
!!!END: 2021-07-14
!!!ENC: Krzysztof Stępień
!!!END: 2021-06-23
